packages/icons/raw/imported/MediaPhoto.svg

<svg width="32" height="32" viewBox="0 0 32 32" fill="none" xmlns="http://www.w3.org/2000/svg">
<path d="M6.5 13.5944H7H6.5ZM6.5 22.5H6H6.5ZM22.5 25.5V25V25.5ZM9.5 25.5V26V25.5ZM25.5 13.5945H25H25.5ZM25.5 22.5H26H25.5ZM20.3664 9.38667L19.9192 9.61027L19.9192 9.61027L20.3664 9.38667ZM19.7523 8.15837L20.1995 7.93476L20.1995 7.93476L19.7523 8.15837ZM17.069 6.50001L17.069 7.00001L17.069 6.50001ZM14.931 6.5L14.931 7L14.931 6.5ZM12.2477 8.15836L11.8005 7.93475L11.8005 7.93475L12.2477 8.15836ZM11.6336 9.38664L11.1864 9.16303L11.6336 9.38664ZM9.20984 10.8846L9.20984 10.3846H9.20984V10.8846ZM22.7902 10.8846V11.3846V10.8846ZM19.1538 17.4615C19.1538 19.2034 17.7418 20.6154 16 20.6154V21.6154C18.2941 21.6154 20.1538 19.7556 20.1538 17.4615H19.1538ZM16 20.6154C14.2582 20.6154 12.8462 19.2034 12.8462 17.4615H11.8462C11.8462 19.7556 13.7059 21.6154 16 21.6154V20.6154ZM12.8462 17.4615C12.8462 15.7197 14.2582 14.3077 16 14.3077V13.3077C13.7059 13.3077 11.8462 15.1674 11.8462 17.4615H12.8462ZM16 14.3077C17.7418 14.3077 19.1538 15.7197 19.1538 17.4615H20.1538C20.1538 15.1674 18.2941 13.3077 16 13.3077V14.3077ZM6 13.5944L6 22.5H7L7 13.5944H6ZM22.5 25H9.5V26H22.5V25ZM25 13.5945V22.5H26V13.5945H25ZM20.8136 9.16306L20.1995 7.93476L19.305 8.38198L19.9192 9.61027L20.8136 9.16306ZM17.069 6.00001L14.931 6L14.931 7L17.069 7.00001L17.069 6.00001ZM11.8005 7.93475L11.1864 9.16303L12.0808 9.61025L12.695 8.38197L11.8005 7.93475ZM14.931 6C13.6053 5.99999 12.3934 6.749 11.8005 7.93475L12.695 8.38197C13.1184 7.535 13.9841 7 14.931 7L14.931 6ZM9.20984 11.3846C10.4256 11.3846 11.5371 10.6977 12.0808 9.61025L11.1864 9.16303C10.8121 9.91169 10.0469 10.3846 9.20984 10.3846L9.20984 11.3846ZM22.7902 10.3846C21.9531 10.3846 21.1879 9.91172 20.8136 9.16306L19.9192 9.61027C20.4629 10.6977 21.5744 11.3846 22.7902 11.3846V10.3846ZM20.1995 7.93476C19.6066 6.74902 18.3947 6.00001 17.069 6.00001L17.069 7.00001C18.0159 7.00001 18.8816 7.53502 19.305 8.38198L20.1995 7.93476ZM26 13.5945C26 11.8217 24.5629 10.3846 22.7902 10.3846V11.3846C24.0106 11.3846 25 12.374 25 13.5945H26ZM7 13.5944C7 12.374 7.98938 11.3846 9.20984 11.3846V10.3846C7.4371 10.3846 6 11.8217 6 13.5944H7ZM6 22.5C6 24.433 7.567 26 9.5 26V25C8.11929 25 7 23.8807 7 22.5H6ZM22.5 26C24.433 26 26 24.433 26 22.5H25C25 23.8807 23.8807 25 22.5 25V26Z" fill="black"/>
</svg>

<svg width="32" height="32" fill="none" xmlns="http://www.w3.org/2000/svg"><path d="M6.5 13.594H7h-.5Zm0 8.906H6h.5Zm16 3V25v.5Zm-13 0v.5-.5Zm16-11.905H25h.5Zm0 8.905h.5-.5ZM20.366 9.387l-.447.223.447-.223Zm-.614-1.229.448-.223-.448.223ZM17.07 6.5V7v-.5Zm-2.138 0V7v-.5Zm-2.683 1.658-.447-.223.447.223Zm-.614 1.229-.448-.224.448.224ZM9.21 10.885v-.5.5Zm13.58 0v.5-.5Zm-3.636 6.577A3.154 3.154 0 0 1 16 20.614v1a4.154 4.154 0 0 0 4.154-4.153h-1ZM16 20.614a3.154 3.154 0 0 1-3.154-3.153h-1A4.154 4.154 0 0 0 16 21.614v-1Zm-3.154-3.153A3.154 3.154 0 0 1 16 14.308v-1a4.154 4.154 0 0 0-4.154 4.154h1ZM16 14.308a3.154 3.154 0 0 1 3.154 3.154h1A4.154 4.154 0 0 0 16 13.308v1Zm-10-.714V22.5h1v-8.906H6ZM22.5 25h-13v1h13v-1ZM25 13.595V22.5h1v-8.905h-1Zm-4.186-4.432L20.2 7.935l-.895.447.614 1.228.895-.447ZM17.069 6h-2.138v1h2.138V6Zm-5.268 1.935-.615 1.228.895.447.614-1.228-.895-.447ZM14.93 6a3.5 3.5 0 0 0-3.13 1.935l.894.447A2.5 2.5 0 0 1 14.931 7V6ZM9.21 11.385a3.21 3.21 0 0 0 2.87-1.775l-.894-.447a2.21 2.21 0 0 1-1.976 1.222v1Zm13.58-1a2.21 2.21 0 0 1-1.976-1.222l-.895.447a3.21 3.21 0 0 0 2.871 1.775v-1Zm-2.59-2.45A3.5 3.5 0 0 0 17.069 6v1a2.5 2.5 0 0 1 2.236 1.382l.895-.447Zm5.8 5.66a3.21 3.21 0 0 0-3.21-3.21v1c1.22 0 2.21.989 2.21 2.21h1Zm-19 0c0-1.221.99-2.21 2.21-2.21v-1A3.21 3.21 0 0 0 6 13.595h1ZM6 22.5A3.5 3.5 0 0 0 9.5 26v-1A2.5 2.5 0 0 1 7 22.5H6ZM22.5 26a3.5 3.5 0 0 0 3.5-3.5h-1a2.5 2.5 0 0 1-2.5 2.5v1Z" fill="#000"/></svg>
